X: 7039
T: Chinese Breakdown
R: reel
M: 4/4
K: Dmajor
(3ABc|d2A2 BdBA|F2FE F2 (3ABc|d2A2BdBA|G2GF G2AB|
c2A2BcBA|c3c- c2AB|c2A2BcBA|F3F- F2(3ABc|
d2A2 BdBA|F2FE F2FE|D2D2 E2F2|G3G-G4|
ee2e- efed|cc2c- cdcB|A2AA B2c2|d3d- d4|
|:ddfd dfdd|ddfd dfdd|ddfd gdfd|B3B- B4|
[1 aa2a- abaf|gg2g- gagf|e2^d2 e2=f2|f3f- f4:|
[2 ABcd efga|bagf edcB|A2AA B2c2|dBAF D2||

